flaticon/productivity/browser-3.svg

<svg xmlns="http://www.w3.org/2000/svg" width="32" height="32" viewBox="0 0 24 24">
    <path d="M 23.488281 0 L 0.511719 0 C 0.230469 0 0 0.226562 0 0.511719 L 0 23.488281 C 0 23.773438 0.230469 24 0.511719 24 L 23.488281 24 C 23.769531 24 24 23.773438 24 23.488281 L 24 0.511719 C 24 0.226562 23.769531 0 23.488281 0 Z M 1.019531 1.019531 L 22.980469 1.019531 L 22.980469 5.992188 L 1.019531 5.992188 Z M 22.980469 22.980469 L 1.019531 22.980469 L 1.019531 7.011719 L 22.980469 7.011719 Z M 22.980469 22.980469"/>
    <path d="M14.535156 2.730469L15.554688 2.730469 15.554688 4.285156 14.535156 4.285156zM17.667969 2.730469L18.691406 2.730469 18.691406 4.285156 17.667969 4.285156zM20.804688 2.730469L21.824219 2.730469 21.824219 4.285156 20.804688 4.285156zM8.675781 15.882812L5.871094 14.554688 8.675781 13.261719 8.675781 11.980469 4.429688 13.980469 4.429688 15.175781 8.675781 17.175781zM14.453125 10.992188L13.214844 10.992188 9.554688 19 10.785156 19zM19.570312 13.980469L15.328125 11.980469 15.328125 13.261719 18.128906 14.554688 15.328125 15.882812 15.328125 17.175781 19.570312 15.175781zM19.570312 13.980469"/>
</svg>

<svg xmlns="http://www.w3.org/2000/svg" width="32" height="32" viewBox="0 0 24 24">
    <path d="M23.488 0H.512A.511.511 0 0 0 0 .512v22.976c0 .285.23.512.512.512h22.976a.511.511 0 0 0 .512-.512V.512A.511.511 0 0 0 23.488 0zM1.02 1.02h21.96v4.972H1.02zm21.96 21.96H1.02V7.012h21.96zm0 0"/>
    <path d="M14.535 2.73h1.02v1.555h-1.02zm0 0M17.668 2.73h1.023v1.555h-1.023zm0 0M20.805 2.73h1.02v1.555h-1.02zm0 0M8.676 15.883L5.87 14.555l2.805-1.293V11.98l-4.246 2v1.196l4.246 2zm0 0M14.453 10.992h-1.238L9.555 19h1.23zm0 0M19.57 13.98l-4.242-2v1.282l2.8 1.293-2.8 1.328v1.293l4.242-2zm0 0"/>
</svg>
